app/dist/common/images/eyebright-medical-technology-beijing.svg

<svg height="18" viewBox="0 0 18 18" width="18" xmlns="http://www.w3.org/2000/svg"><path d="m0 0h18v18h-18z" fill="#f0f3fa"/><path d="m6.6 4.3c.3-.23.65-.3.9-.3h4.5v1.5h-4.5v2.5h4.5v1.5h-4.5v3h4.5v1.5h-4.5c-.54 0-.96-.24-1.2-.6-.23-.3-.3-.66-.3-.9v-7c0-.54.24-.96.6-1.2z" fill="#002c73"/></svg>

<!-- by TradingView --><svg width="18" height="18" viewBox="0 0 18 18" xmlns="http://www.w3.org/2000/svg"><path fill="#F0F3FA" d="M0 0h18v18H0z"/><path d="M6.6 4.3c.3-.23.65-.3.9-.3H12v1.5H7.5V8H12v1.5H7.5v3H12V14H7.5c-.54 0-.96-.24-1.2-.6-.23-.3-.3-.66-.3-.9v-7c0-.54.24-.96.6-1.2Z" fill="#002C73"/></svg>
